packages/icons/src/components/Flags/assets/disabled/slovakia.svg

<svg width="24" height="24" viewBox="0 0 24 24" fill="none" xmlns="http://www.w3.org/2000/svg">
<g>
<path d="M12 24C18.6274 24 24 18.6274 24 12C24 5.37258 18.6274 0 12 0C5.37258 0 0 5.37258 0 12C0 18.6274 5.37258 24 12 24Z" fill="#F0F0F0"/>
<path d="M12 24C18.6274 24 24 18.6273 24 11.9999C24 10.5321 23.736 9.12599 23.2536 7.82605H0.746391C0.264047 9.12599 0 10.5321 0 11.9999C0 18.6273 5.37262 24 12 24Z" fill="#444444"/>
<path d="M12.0001 24.0001C17.1597 24.0001 21.5582 20.7436 23.2537 16.174H0.746521C2.44204 20.7436 6.84055 24.0001 12.0001 24.0001Z" fill="#454545"/>
<path d="M3.10278 6.78259V12.7688C3.10278 16.174 7.55127 17.2174 7.55127 17.2174C7.55127 17.2174 11.9997 16.174 11.9997 12.7688V6.78259H3.10278Z" fill="#F0F0F0"/>
<path d="M4.14655 6.78259V12.7688C4.14655 13.1686 4.23533 13.5461 4.4112 13.9001H10.6918C10.8677 13.5462 10.9565 13.1686 10.9565 12.7688V6.78259H4.14655Z" fill="#454545"/>
<path d="M9.6383 10.9565H8.07315V9.91297H9.11663V8.86949H8.07315V7.82605H7.02966V8.86949H5.98623V9.91297H7.02966V10.9565H5.46442V11.9999H7.02966V13.0434H8.07315V11.9999H9.6383V10.9565Z" fill="#F0F0F0"/>
<path d="M5.83422 15.3567C6.50664 15.7793 7.19748 16.0247 7.55115 16.1338C7.90482 16.0247 8.59567 15.7793 9.26809 15.3567C9.94618 14.9306 10.4215 14.4431 10.6914 13.9001C10.3937 13.6895 10.0305 13.5653 9.63812 13.5653C9.49525 13.5653 9.35645 13.5822 9.223 13.6133C8.9402 12.9707 8.29825 12.5218 7.5512 12.5218C6.80415 12.5218 6.16215 12.9707 5.8794 13.6133C5.74595 13.5822 5.60711 13.5653 5.46428 13.5653C5.07189 13.5653 4.70865 13.6895 4.41095 13.9001C4.68072 14.4431 5.15607 14.9305 5.83422 15.3567Z" fill="#454545"/>
</g>
<defs>
<clipPath id="clip0_3072_403">
<rect width="24" height="24" fill="white"/>
</clipPath>
</defs>
</svg>

<svg xmlns="http://www.w3.org/2000/svg" width="24" height="24" fill="none" viewBox="0 0 24 24">
    <path fill="#f0f0f0" d="M12 24c6.627 0 12-5.373 12-12S18.627 0 12 0 0 5.373 0 12s5.373 12 12 12"/>
    <path fill="#444" d="M12 24c6.627 0 12-5.373 12-12 0-1.468-.264-2.874-.746-4.174H.746A12 12 0 0 0 0 12c0 6.627 5.373 12 12 12"/>
    <path fill="#454545" d="M12 24c5.16 0 9.558-3.256 11.254-7.826H.747C2.442 20.744 6.84 24 12 24"/>
    <path fill="#f0f0f0" d="M3.103 6.783v5.986c0 3.405 4.448 4.448 4.448 4.448S12 16.174 12 12.77V6.783z"/>
    <path fill="#454545" d="M4.147 6.783v5.986q0 .6.264 1.131h6.28a2.5 2.5 0 0 0 .265-1.131V6.783z"/>
    <path fill="#f0f0f0" d="M9.638 10.957H8.073V9.913h1.044V8.869H8.073V7.826H7.03V8.87H5.986v1.044H7.03v1.043H5.464V12H7.03v1.043h1.043V12h1.565z"/>
    <path fill="#454545" d="M5.834 15.357a7.5 7.5 0 0 0 1.717.777 7.5 7.5 0 0 0 1.717-.777q1.018-.64 1.423-1.457a1.82 1.82 0 0 0-1.468-.287 1.826 1.826 0 0 0-3.344 0 1.83 1.83 0 0 0-1.468.287q.406.815 1.423 1.457"/>
</svg>
